humanity-icon-theme/Humanity/apps/22/application-community.svg

<?xml version="1.0" encoding="UTF-8" standalone="no"?>
<!-- Created with Inkscape (http://www.inkscape.org/) -->

<svg
   xmlns:svg="http://www.w3.org/2000/svg"
   xmlns="http://www.w3.org/2000/svg"
   xmlns:xlink="http://www.w3.org/1999/xlink"
   version="1.0"
   width="22"
   height="22"
   id="svg1">
  <defs
     id="defs3">
    <linearGradient
       id="linearGradient2780">
      <stop
         id="stop2782"
         style="stop-color:white;stop-opacity:1"
         offset="0" />
      <stop
         id="stop2784"
         style="stop-color:white;stop-opacity:0"
         offset="1" />
    </linearGradient>
    <linearGradient
       id="linearGradient6621">
      <stop
         id="stop6622"
         style="stop-color:#f5a108;stop-opacity:0"
         offset="0" />
      <stop
         id="stop6623"
         style="stop-color:#fefdc3;stop-opacity:0.74251497"
         offset="1" />
    </linearGradient>
    <linearGradient
       x1="22.819513"
       y1="28.829224"
       x2="12.849945"
       y2="12.239423"
       id="linearGradient7881"
       xlink:href="#linearGradient6621"
       gradientUnits="userSpaceOnUse"
       gradientTransform="matrix(0.51288388,0,0,0.27020515,-0.07117882,0.745462)" />
    <linearGradient
       x1="24"
       y1="5.0793009"
       x2="24"
       y2="41.0793"
       id="linearGradient2786"
       xlink:href="#linearGradient2780"
       gradientUnits="userSpaceOnUse"
       gradientTransform="matrix(0.46199132,0,0,0.47517628,-0.1453971,-0.0416244)" />
    <linearGradient
       id="linearGradient3242">
      <stop
         id="stop3244"
         style="stop-color:#f8b17e;stop-opacity:1"
         offset="0" />
      <stop
         id="stop3246"
         style="stop-color:#e35d4f;stop-opacity:1"
         offset="0.31209752" />
      <stop
         id="stop3248"
         style="stop-color:#c6262e;stop-opacity:1"
         offset="0.57054454" />
      <stop
         id="stop3250"
         style="stop-color:#690b54;stop-opacity:1"
         offset="1" />
    </linearGradient>
    <linearGradient
       id="linearGradient2490">
      <stop
         id="stop2492"
         style="stop-color:#791235;stop-opacity:1"
         offset="0" />
      <stop
         id="stop2494"
         style="stop-color:#dd3b27;stop-opacity:1"
         offset="1" />
    </linearGradient>
    <linearGradient
       x1="24"
       y1="6"
       x2="24"
       y2="51"
       id="linearGradient3853"
       xlink:href="#linearGradient3242"
       gradientUnits="userSpaceOnUse"
       gradientTransform="matrix(0.48412903,0,0,0.49583931,-0.67625394,-1.5648492)" />
    <linearGradient
       x1="17"
       y1="45"
       x2="17"
       y2="6"
       id="linearGradient3861"
       xlink:href="#linearGradient2490"
       gradientUnits="userSpaceOnUse"
       gradientTransform="matrix(0.48412903,0,0,0.49583931,-0.67625394,-1.5648492)" />
  </defs>
  <path
     d="M 6.1196788,2.6498886 C 3.5209271,2.5189342 2.3102429,4.228039 1.6553565,5.8538921 1.005464,7.9949287 1.9241384,12.038843 6.4260775,11.731199 c 2.5678836,0 3.5885255,-2.695971 4.9399895,-3.39583 1.228227,-0.4754361 1.324894,-0.5179873 2.622535,-0.5179873 1.803318,0 5.064404,-1.3360822 5.064405,-2.6617875 C 18.498709,4.0917962 17.027123,2.1973368 14.32299,2.5202254 12.601699,2.7253207 10.973256,3.9849488 10.547883,4.6117437 9.505863,3.6708311 8.1753601,2.6498886 6.1196788,2.6498886 z"
     id="path7876"
     style="fill:url(#linearGradient7881);fill-opacity:1;fill-rule:evenodd;stroke:none" />
  <path
     d="M 10.863717,3.4920235 C 15.360634,-1.1117463 21.54045,3.1315676 21.499801,7.4976614 21.462639,11.489031 18.49125,13.400548 11.026318,20.5 3.2127816,13.895478 0.45979263,12.37245 0.50044263,7.6368239 0.54109273,2.7347325 5.8315367,-0.9443102 10.863717,3.4920235 z"
     id="path920"
     style="fill:url(#linearGradient3853);fill-opacity:1;fill-rule:evenodd;stroke:url(#linearGradient3861);stroke-width:0.99999976;stroke-linecap:butt;stroke-linejoin:miter;stroke-miterlimit:4;stroke-opacity:1;stroke-dasharray:none" />
  <path
     d="M 6.8422215,2.5272974 C 6.4575952,2.4934316 6.074161,2.5019895 5.7161177,2.5569959 3.3270639,2.9240282 1.5226739,5.1663941 1.5004469,7.8581818 1.4819607,10.020918 2.0346951,11.329037 3.5649706,12.996025 5.0397732,14.602583 7.4985963,16.527249 11.014581,19.5 c 3.364635,-3.199595 5.785066,-5.34228 7.2908,-7.0237 C 19.867939,10.731429 20.483356,9.502653 20.49984,7.7245377 20.51684,5.8915484 19.179039,3.967072 17.338087,3.0618707 15.497135,2.1566694 13.23668,2.202742 11.231139,4.2646606 A 0.51813698,0.53292432 0 0 1 10.538153,4.294359 C 9.255511,3.1587877 7.9961014,2.6288946 6.8422215,2.5272974 z"
     id="path2778"
     style="opacity:0.4;fill:none;stroke:url(#linearGradient2786);stroke-width:0.99999994;stroke-linecap:butt;stroke-linejoin:miter;stroke-miterlimit:4;stroke-opacity:1;stroke-dasharray:none" />
</svg>

<?xml version="1.0" encoding="UTF-8" standalone="no"?>
<!-- Created with Inkscape (http://www.inkscape.org/) -->
<svg id="svg1" xmlns="http://www.w3.org/2000/svg" height="22" width="22" version="1.0" xmlns:xlink="http://www.w3.org/1999/xlink">
 <defs id="defs3">
  <linearGradient id="linearGradient7881" y2="12.239" gradientUnits="userSpaceOnUse" x2="12.85" gradientTransform="matrix(.51288 0 0 .27021 -.071179 .74546)" y1="28.829" x1="22.82">
   <stop id="stop6622" style="stop-color:#f5a108;stop-opacity:0" offset="0"/>
   <stop id="stop6623" style="stop-color:#fefdc3;stop-opacity:.74251" offset="1"/>
  </linearGradient>
  <linearGradient id="linearGradient2786" y2="41.079" gradientUnits="userSpaceOnUse" x2="24" gradientTransform="matrix(.46199 0 0 .47518 -.14540 -.041624)" y1="5.0793" x1="24">
   <stop id="stop2782" style="stop-color:#fff" offset="0"/>
   <stop id="stop2784" style="stop-color:#fff;stop-opacity:0" offset="1"/>
  </linearGradient>
  <linearGradient id="linearGradient3853" y2="51" gradientUnits="userSpaceOnUse" x2="24" gradientTransform="matrix(.48413 0 0 .49584 -.67625 -1.5648)" y1="6" x1="24">
   <stop id="stop3244" style="stop-color:#f8b17e" offset="0"/>
   <stop id="stop3246" style="stop-color:#e35d4f" offset=".31210"/>
   <stop id="stop3248" style="stop-color:#c6262e" offset=".57054"/>
   <stop id="stop3250" style="stop-color:#690b54" offset="1"/>
  </linearGradient>
  <linearGradient id="linearGradient3861" y2="6" gradientUnits="userSpaceOnUse" x2="17" gradientTransform="matrix(.48413 0 0 .49584 -.67625 -1.5648)" y1="45" x1="17">
   <stop id="stop2492" style="stop-color:#791235" offset="0"/>
   <stop id="stop2494" style="stop-color:#dd3b27" offset="1"/>
  </linearGradient>
 </defs>
 <path id="path7876" style="fill:url(#linearGradient7881);fill-rule:evenodd" d="m6.1197 2.6499c-2.5988-0.131-3.8095 1.5781-4.4643 3.204-0.6499 2.141 0.2687 6.1851 4.7707 5.8771 2.5679 0 3.5885-2.696 4.94-3.3958 1.2282-0.47544 1.3249-0.51799 2.6225-0.51799 1.8033 0 5.0644-1.3361 5.0644-2.6618-0.554-1.0636-2.026-2.9581-4.73-2.6352-1.721 0.2051-3.35 1.4647-3.775 2.0915-1.0421-0.9409-2.3726-1.9618-4.4283-1.9618z"/>
 <path id="path920" style="fill-rule:evenodd;stroke:url(#linearGradient3861);fill:url(#linearGradient3853)" d="m10.864 3.492c4.497-4.6037 10.676-0.3604 10.636 4.0057-0.037 3.9913-3.009 5.9033-10.474 13.002-7.8132-6.605-10.566-8.128-10.526-12.863 0.04109-4.9023 5.3315-8.5813 10.364-4.145z"/>
 <path id="path2778" style="opacity:.4;stroke:url(#linearGradient2786);fill:none" d="m6.8422 2.5273c-0.3846-0.0339-0.768-0.0253-1.1261 0.0297-2.389 0.367-4.1934 2.6094-4.2157 5.3012-0.0184 2.1628 0.5343 3.4708 2.0646 5.1378 1.4748 1.607 3.9336 3.531 7.45 6.504 3.3646-3.1996 5.7851-5.3423 7.2908-7.0237 1.562-1.745 2.177-2.9733 2.194-4.7515 0.017-1.833-1.321-3.7574-3.162-4.6626s-4.101-0.8592-6.107 1.2028a0.51814 0.53292 0 0 1 -0.693 0.0297c-1.2825-1.1356-2.5419-1.6655-3.6958-1.7671z"/>
</svg>
